X: 205
T: Dunmore Kate
P: Longways for as many as will
%R: reel
B: "The Dancing-Master: Containing Directions and Tunes for Dancing" printed by W. Pearson for John Walsh, London ca. 1709
S: 7: DMDfD http://digital.nls.uk/special-collections-of-printed-music/pageturner.cfm?id=89751228 p.227
Z: 2013 John Chambers <jc:trillian.mit.edu>
M: C|
L: 1/8
K: Gm
% - - - - - - - - - - - - - - - - - - - - - - - - -
A2 |\
(Bc) d2 (ed) (cA) | B2 (AG) G3 A |\
(Bc) (de) f2 f2 | d2 B2 f3 d |\
e3 f g2 a2 | b2 B4 B2 |
(de f2) A3 B | c2 d2 e3 f |\
d3 d =e3 =e | ^f2 g2 a3 a |\
b2 d2- d2 ^f2 | g2 b4 ag |\
(^fd) (cB) c2 d2 | B2 G4 |]
% - - - - - - - - - - - - - - - - - - - - - - - - -
%%begintext align
%% The two men take hands and lead between the two we. and come in their own places, the 1. man
%% take his Partner by the right-hand and lead through the 2. cu. and cast up into their own places, then
%% all four hands half round and fall back, and change with your own Partners; the rest do the same.
%% [DMDfD]
%%endtext
%%sep 1 8 500

%%sep 1 1 500
%%sep 1 1 500
